X: 20561
T: JIM ALONG JOSEY
C:
%R: polka, march, reel
B: Elias Howe "The Musician's Companion" 1843 p.56 #1
S: http://imslp.org/wiki/The_Musician's_Companion_(Howe,_Elias)
Z: 2015 John Chambers <jc:trillian.mit.edu>
M: 2/4
L: 1/16
K: A
% - - - - - - - - - - - - - - - - - - - - - - - - -
|:\
e2 {g}fe c2c2 | B2B2c2e2 | e2{g}fe c2c2 | {c}BABc A4 |\
e2 {g}fe c2c2 | B2B2c2e2 | e2{g}fe c2c2 | {c}BABc A4 :|
|: e2 |\
a3b a2ab | (ae)(cA) ({c}BA)(Bc) | (Ac)(eg) (ae)(cA) | ({c}BA)(Bc)  ({c}BA)(EA) |\
(Ac)(eg) (ae)(ce) | (ae)(ce) (ae)(cA) | (Ac)(eg) (ae)(cA) | ({c}BA)(Bc) A2 :|
% - - - - - - - - - - - - - - - - - - - - - - - - -

%%sep 1 1 500

